/* XPM */
static char *athena[] = {
/* columns rows colors chars-per-pixel */
"48 48 57 1 ",
"  c #000000",
". c #120704",
"X c #000000",
"o c #0F1319",
"O c #2B1A0F",
"+ c #3A2A15",
"@ c #313334",
"# c #000000",
"$ c #0D1F27",
"% c #462D18",
"& c #4E3424",
"* c #553928",
"= c #724F37",
"- c #685227",
"; c #4E5254",
": c #6B6D6F",
"> c #565D62",
", c black",
"< c #020100",
"1 c #030201",
"2 c #5B402F",
"3 c #47494B",
"4 c #91703C",
"5 c #865C42",
"6 c #96684B",
"7 c #8C6146",
"8 c #B57E5C",
"9 c #A67353",
"0 c #B98260",
"q c #B48256",
"w c #BF8561",
"e c #CBA252",
"r c #C78B65",
"t c #E9BB60",
"y c #FBCC69",
"u c #647A89",
"i c #8F9192",
"p c #B6BABD",
"a c #A5AAAE",
"s c #B8BEC2",
"d c #8FAEC4",
"f c #D7D9DB",
"g c #C7CCCF",
"h c #D8DEE3",
"j c #DDE4E9",
"k c #E3E9ED",
"l c #E5ECF1",
"z c #FBFBFB",
"x c #E9F0F6",
"c c #BDC3C7",
"v c #010101",
"b c #0F0B08",
"n c #000000",
"m c #000000",
"M c #030302",
"N c None",
"B c #F3B38C",
/* pixels */
"NNNNNNNNNNmX          #11#          XmNNNNNNNNNN",
"NNNNNNNNNNn O*********O  O*********O nNNNNNNNNNN",
"NNNNNNNNNNMXOwrrrrrrrrw55wrrwrrrrrwOXMNNNNNNNNNN",
"NNNNNNNNNNNb *8wwwrrrrrrrrrrrrwrw8* bMNNNNNNNNNN",
"NNNNNNNNNNNM<  %%%%*7qrrrr87*%%%%  <NNNNNNNNNNNN",
"NNNNNNNNNNNNNb   @;$..6rr6. $;@   bNNNNNNNNNNNNN",
"NNNNNNNNNNNNN< >gxzlp@ 66 @pkzzg>.<NNNNNNNNNNNNN",
"NNNNNNNNNNNNv :zzzkzzf@  @fzzkzzl: bNNNNNNNNNNNN",
"NNNNNNNNNNNN# jzg@ :jzp  szk> ;czf #NNNNNNNNNNNN",
"NNNNNNNNNNNmXuzk o; >zl@+xz> ;o kz:.mNNNNNNNNNNN",
"NNNNNNNNNNNn izg ud;.kz;;zk ;du gzi nNNNNNNNNNNN",
"NNNNNNNNNNNm qzf ;u$&xz@3zx&$u; fzi mNNNNNNNNNNN",
"NNNNNNNNNNNv @kzi   czf  gzg   izx@ bNNNNNNNNNNN",
"NNNNNNNNNNMX  azzfpkzz:  :zzjsfzzi  XMNNNNNNNNNN",
"NNNNNNNNNN1 =* ilzzzk: ++ :lzzzzi.*= 1NNNNNNNNNN",
"NNNNNNNNNm +rw& &ia: .=ty= .:ii@ *8r+#NNNNNNNNNN",
"NNNNNNNNN1 7rrr=    @ eyye @    6rrr82NNNNNNNNNN",
"NNNNNNNNNXO8rrrr* shp 4yy4 pjp *rrrrrqMNNNNNNNNN",
"NNNNNNNNv =rrrrr6 axj: qq :jxa 6rrrrrr2mNNNNNNNN",
"NNNNNNNN1 9rrrrr8 :kkf>  >fll: 8rrrrr0ovNNNNNNNN",
"NNNNNNNN#.wrrrrrw%@jllh>>fllh@&rrrrrrr0MNNNNNNNN",
"NNNNNNNMX&wrrrrrr= gllljjlklg =rrrrrrrrMNNNNNNNN",
"NNNNNNNm =rrrrrrr5 clkkklkkls 7rrrrrrr8bNNNNNNNN",
"NNNNNNNn =rrrrrrr9 allkkkklxa 6rrrrrrr5 nNNNNNNN",
"NNNNNNNv 5rrr8wrr9 allklkkkla 9rrr8rrr5 vNNNNNNN",
"NNNNNNNv 5rr9 6rr9 aljkkkkkla 9rr6 9rr5 vNNNNNNN",
"NNNNNNNv =rr9 5rr6 allkkkkkla 6rr= 9rr= vNNNNNNN",
"NNNNNNNm.*rr5 =wr= slllkkllls =rr= 7rr* nNNNNNNN",
"NNNNNNNm  8r* Owr% clgsllcglc %rwO *r8  MNNNNNNN",
"NNNNNNNN# 59   69 $hl: jh :lh$ 96   95 #NNNNNNNN",
"NNNNNNNN< O% 6OO% >kl: hh :lk> +O+7 &O <NNNNNNNN",
"NNNNNNNNb   =r6   ixxgsklsglxi   6r=   bNNNNNNNN",
"NNNNNNNNm  =8rr=  cxlllkkllklc  =rrw= XmNNNNNNNN",
"NNNNNNNNN, 6rrrw >jllkkllkkllj; rrrr9 ,NNNNNNNNN",
"NNNNNNNNNv =rrr5 axgpjlcckjsgxa 5rrr- vNNNNNNNNN",
"NNNNNNNNNN# 9r8.@hli fj;;jf ixh@.wr9 #NNNNNNNNNN",
"NNNNNNNNNNv &r= alli gj;;jg illd =w& vNNNNNNNNNN",
"NNNNNNNNNNN< * :jllgskkcckjsfllj: * <NNNNNNNNNNN",
"NNNNNNNNNNNMX $flkklxlkllkllklklg@ XMNNNNNNNNNNN",
"NNNNNNNNNNNNnXoslljllkkklkklkjllsoXnNNNNNNNNNNNN",
"NNNNNMMMMMMMMb oai>is::aa::pi>ia$ bNMMMMMMMNNNNN",
"NNNNm#XXXXXXXX    O   .  .   O    XXXXXXXX#MNNNN",
"NNNNn +&*&&&&*&+ qy- et++te -yq %&&&&*&&*O vNNNN",
"NNNNn =rrrrrrrr6oey4 yy**yt.4ye 6rwrrrwrr= nNNNN",
"NNNNn =w88w88qw5 eyq ty--yt 4ye 5w88w88qw= nNNNN",
"NNNNn  ......... qy- et%+te 4yq .........  nNNNN",
"NNNNM<,,,,,,,,,,XO-  %*  *%  *O ,,,,,,,,,,<MNNNN",
"NNNNNNNNNNNNNNNNv# <1XX<1XX1< #vNNNNNNNNNNNNNNNN"
};
