/* XPM */
static char *bow_archer[] = {
/* columns rows colors chars-per-pixel */
"32 32 53 1 ",
"  c #930800",
". c #930800",
"X c #85230F",
"o c #8A0800",
"O c #940800",
"+ c #8F0800",
"@ c #BB0800",
"# c #7E0800",
"$ c #9A0901",
"% c #A70800",
"& c #AE1003",
"* c #9D3216",
"= c #AB2A12",
"- c #BE0800",
"; c #CF0800",
": c #813F22",
"> c #DA0800",
", c #EB0800",
"< c #E71707",
"1 c #D72F17",
"2 c #E22713",
"3 c #DC3C21",
"4 c #99542B",
"5 c #A4542C",
"6 c #A46737",
"7 c #AC723D",
"8 c #9C5529",
"9 c #D4502E",
"0 c #D1643D",
"q c #AC7A43",
"w c #AC7142",
"e c #CF7648",
"r c #C60800",
"t c #B6894B",
"y c #BD9252",
"u c #B4864D",
"i c #C89B57",
"p c #CC8953",
"a c #CEA25D",
"s c #CE9960",
"d c #D8A86A",
"f c #D6AB6B",
"g c #E7BA77",
"h c #E0AF70",
"j c #EEC17C",
"k c #7F0800",
"l c #930800",
"z c #720800",
"x c #B30800",
"c c #780800",
"v c #940800",
"b c #6B0800",
"n c None",
/* pixels */
"nnnnnnnnnnnnbz+ -+zbnnnnnnnnnnnn",
"nnnnnnnnnczo.%%%,,,;rzbbnnnnnnnn",
"nnnnnbz+o$$&%%%=2,,,,,>r+zbbnnnn",
"bk+o $$%%%&&*57yhp03<,,,,,>rrrkb",
"z$%%%%%%=*6qyiiaggghde92<,,,,,>z",
"+%%%*857tiiiiiiagjjjjgghpe93<,>r",
"o%%*uiiiiaiiiiiyhjjjjjjjjjgd3,,r",
" %%4iiiiiiiiiiiydgjjjjjjjjgge,,r",
" %%8iiiiiiaiiiitphjjjjjjjjjje,,-",
".%%6iiiaiiiiiiitdjjjjjjjjjjje,,>",
"$%%6iiiiiiiiiit7pdgjjjjjjjjjp,,>",
"$%%6iiaiiii78=11*35wsgjjjjjjp,,>",
"$%%6iiiii6:867tqsdyw56sjjjjje,,>",
".%%5iiiy88tiiiiyfjjjgs6qgjjje,,$",
" %%8iii66yiiiiiyfjjjjjhwsjjg0,,-",
"o%%4yiu4yaiiiiiyfjjjjjgdwggg0,,r",
"+%%*tt4qyiiiiyytfgggjgggsusf9,,+",
"k$%=qtttyyyyyyytshggfggffffd2,,x",
"c$%$7iaiiiiiiiausjjjjjjjjjjs<,>c",
"b %%4yiiiiiiiii:4gjjjjjjjjgw,,-b",
"n+%%*uiiiiiiiit:Xfjjjjjjjjh3,,+n",
"nz$%%6yaiiiaiiy7yfjjjjjjjje<,>cn",
"nn+%&*tiiiiiiiyyggjjjjjjjh3,,rbn",
"nnz$&&8iiaiiaiaagjjjjjjjg0,,>znn",
"nnn+%%$7yaaiiaiagjjjjjjje2,,+nnn",
"nnnb %%*7yiiiiiajjjjjjjp2,,-bnnn",
"nnnnc %%&6yaiiiagjjjjge2,,-cnnnn",
"nnnnnc %%%8qyaiagjjjs9<,,-cnnnnn",
"nnnnnnco$%%&4wyshhp92,,,rcnnnnnn",
"nnnnnnnbl$%%%%==32,,,,;knnnnnnnn",
"nnnnnnnnnbk $%>&,,,>;kbnnnnnnnnn",
"nnnnnnnnnnnbzko$;r+cbnnnnnnnnnnn"
};
