/* XPM */
static char *bow_flame[] = {
/* columns rows colors chars-per-pixel */
"32 32 57 1 ",
"  c #C60800",
". c #401A01",
"X c #3F1900",
"o c #C60800",
"O c #431C01",
"+ c #462207",
"@ c #492913",
"# c #52331C",
"$ c #512F15",
"% c #5C3D24",
"& c #5F422A",
"* c #65462C",
"= c #6A4C32",
"- c #745639",
"; c #77583C",
": c #7D5F43",
"> c #7D5F41",
", c #7F6042",
"< c #917252",
"1 c #3F1900",
"2 c #3F1900",
"3 c #411C03",
"4 c #52331D",
"5 c #A58561",
"6 c #D4AF83",
"7 c #B1906A",
"8 c #7B5D41",
"9 c #896948",
"0 c #9B7A54",
"q c #937350",
"w c #A98761",
"e c #D1AD82",
"r c #E0BA8C",
"t c #A6845D",
"y c #AC8A63",
"u c #B9956B",
"i c #BF9B72",
"p c #DBB588",
"a c #CEA97C",
"s c #C29E73",
"d c #E2BB8E",
"f c #D7B185",
"g c #C60800",
"h c #C60800",
"j c #C60800",
"k c #906A47",
"l c #A0805D",
"z c #DAB488",
"x c #C9A57C",
"c c #E6BF91",
"v c #441F07",
"b c #5B371D",
"n c #CEAA7F",
"m c #563116",
"M c None",
"N c #E4BE90",
"B c #E0BA8D",
/* pixels */
"MMMMMMMMMMMMMMMMMMMMMMMMMMMMMMMM",
"MMMMMMMMMMMMMMMMMMMMMMMMMMMMMMMM",
"MMMMMMMMMvjjhvMMMMMMMMMMMMMMMMMM",
"MMMMMMMMMmvgX.1gmMMMMMMMMMMMMMMM",
"MMMMMMMMMMMMv4@ ojMMMMMMMMMMMMMM",
"MMMMmhvMMMMMMb:#  3MMMMMMMMMMMMM",
"MMMMMh2bMMMMMM5>   3mMMMMMMMMMMM",
"MMMMMMXXmMMMMMh0   @8mMMMMMMMMMM",
"MMMMMmXO4MMMbMmw    id4mMMMMMMMM",
"MMMMMv.O9bMv4Mvd    >fpkMMMMMMMM",
"MMMMMgOO%rmb.47=    >a9qbMMMMMMM",
"MMMMmXOO%fdw@y0O    >a>>flmMMMMM",
"MMMMjOOO=au#O%OO + @tu%=fi3mMMMM",
"MMMm1OO%0y%    O+  >iq >ff>3MMMM",
"MMMh.O*09#  OOOO  >y0# >uu9@kMMM",
"MMMgO*0-OOOOOOO #9u0#  %%09%qvMM",
"MMM2O-%O      @-ty9@    #y-O-cMM",
"MMmXO+O     @>yu0%   O  9t%O=rMM",
"MMM1O++O+O -yu0*+   + +,t-O+-rmM",
"MMM3O$-O +9uy-O     +=00=+OO9dMM",
"MMMh @9@ >ut%  O  $-99-$OO++tdMM",
"MMMM2 ,-@yy%  OO  @%@++OOOO=sjMM",
"MMMMbo$9-u0 OOOO +  OOOOOO;ufmMM",
"MMMMMh.&qu9 OOOO   OO+OOO=ifkMMM",
"MMMMMMhX=yy+ +O   OOO @:90frMMMM",
"MMMMMMMv8q0-OOO OOO+%>ttyidmMMMM",
"MMMMMMMMmkdf9+O OO%9yfffrhMMMMMM",
"MMMMMMMMMMvkr9@OO*sfdhvmMMMMMMMM",
"MMMMMMMMMMMMMkw*>spcmMMMMMMMMMMM",
"MMMMMMMMMMMMMMm8ervMMMMMMMMMMMMM",
"MMMMMMMMMMMMMMMMmMMMMMMMMMMMMMMM",
"MMMMMMMMMMMMMMMMMMMMMMMMMMMMMMMM"
};
